(Exported by FreeCAD)
(Post Processor: script_module)
(Output Time:2025-06-12 14:54:44.395630)
(begin preamble)
%
G17 G21 G40 G49 G80 G90
M08
G21
(begin operation: Fixture)
(machine: not set, mm/min)
G54
(finish operation: Fixture)
(begin operation: TC: Default Tool)
(machine: not set, mm/min)
(TC: Default Tool)
M05
M09M6 T1
M3 S5000
(finish operation: TC: Default Tool)
(begin operation: Pocket_Shape)
(machine: not set, mm/min)
(Pocket_Shape)
G0 Z10.000
G0
G0 X11.250 Y-1.250
G0 X11.250 Y-1.250 Z8.000
G1 X11.250 Y-1.250 Z0.000 F50.000
G1 X11.250 Y1.250 Z0.000 F50.000
G1 X-11.250 Y1.250 Z0.000 F50.000
G1 X-11.250 Y-1.250 Z0.000 F50.000
G1 X11.250 Y-1.250 Z0.000 F50.000
G0 Z10.000
G0 X12.500 Y-2.500 Z10.000
G0 X12.500 Y-2.500 Z8.000
G1 X12.500 Y-2.500 Z0.000 F50.000
G1 X12.500 Y2.500 Z0.000 F50.000
G1 X-12.500 Y2.500 Z0.000 F50.000
G1 X-12.500 Y-2.500 Z0.000 F50.000
G1 X12.500 Y-2.500 Z0.000 F50.000
G0 Z10.000
G0 X17.500 Y-7.500 Z10.000
G0 X17.500 Y-7.500 Z8.000
G1 X17.500 Y-7.500 Z0.000 F50.000
G1 X17.500 Y7.500 Z0.000 F50.000
G1 X-17.500 Y7.500 Z0.000 F50.000
G1 X-17.500 Y-7.500 Z0.000 F50.000
G1 X17.500 Y-7.500 Z0.000 F50.000
G0 Z10.000
G0 X22.500 Y-12.500 Z10.000
G0 X22.500 Y-12.500 Z8.000
G1 X22.500 Y-12.500 Z0.000 F50.000
G1 X22.500 Y12.500 Z0.000 F50.000
G1 X-22.500 Y12.500 Z0.000 F50.000
G1 X-22.500 Y-12.500 Z0.000 F50.000
G1 X22.500 Y-12.500 Z0.000 F50.000
G0 Z10.000
G0 X-23.930 Y-17.500 Z10.000
G0 X-23.930 Y-17.500 Z8.000
G1 X-23.930 Y-17.500 Z0.000 F50.000
G1 X23.930 Y-17.500 Z0.000 F50.000
G3 X27.500 Y-13.930 Z0.000 I0.059 J3.511 F50.000
G1 X27.500 Y13.930 Z0.000 F50.000
G3 X23.930 Y17.500 Z0.000 I-3.511 J0.059 F50.000
G1 X-23.930 Y17.500 Z0.000 F50.000
G3 X-27.500 Y13.930 Z0.000 I-0.059 J-3.511 F50.000
G1 X-27.500 Y-13.930 Z0.000 F50.000
G3 X-23.930 Y-17.500 Z0.000 I3.511 J-0.059 F50.000
G0 Z10.000
G0 X11.250 Y-1.250 Z10.000
G0 X11.250 Y-1.250 Z8.000
G1 X11.250 Y-1.250 Z-5.000 F50.000
G1 X11.250 Y1.250 Z-5.000 F50.000
G1 X-11.250 Y1.250 Z-5.000 F50.000
G1 X-11.250 Y-1.250 Z-5.000 F50.000
G1 X11.250 Y-1.250 Z-5.000 F50.000
G0 Z10.000
G0 X12.500 Y-2.500 Z10.000
G0 X12.500 Y-2.500 Z8.000
G1 X12.500 Y-2.500 Z-5.000 F50.000
G1 X12.500 Y2.500 Z-5.000 F50.000
G1 X-12.500 Y2.500 Z-5.000 F50.000
G1 X-12.500 Y-2.500 Z-5.000 F50.000
G1 X12.500 Y-2.500 Z-5.000 F50.000
G0 Z10.000
G0 X17.500 Y-7.500 Z10.000
G0 X17.500 Y-7.500 Z8.000
G1 X17.500 Y-7.500 Z-5.000 F50.000
G1 X17.500 Y7.500 Z-5.000 F50.000
G1 X-17.500 Y7.500 Z-5.000 F50.000
G1 X-17.500 Y-7.500 Z-5.000 F50.000
G1 X17.500 Y-7.500 Z-5.000 F50.000
G0 Z10.000
G0 X22.500 Y-12.500 Z10.000
G0 X22.500 Y-12.500 Z8.000
G1 X22.500 Y-12.500 Z-5.000 F50.000
G1 X22.500 Y12.500 Z-5.000 F50.000
G1 X-22.500 Y12.500 Z-5.000 F50.000
G1 X-22.500 Y-12.500 Z-5.000 F50.000
G1 X22.500 Y-12.500 Z-5.000 F50.000
G0 Z10.000
G0 X-23.930 Y-17.500 Z10.000
G0 X-23.930 Y-17.500 Z8.000
G1 X-23.930 Y-17.500 Z-5.000 F50.000
G1 X23.930 Y-17.500 Z-5.000 F50.000
G3 X27.500 Y-13.930 Z-5.000 I0.059 J3.511 F50.000
G1 X27.500 Y13.930 Z-5.000 F50.000
G3 X23.930 Y17.500 Z-5.000 I-3.511 J0.059 F50.000
G1 X-23.930 Y17.500 Z-5.000 F50.000
G3 X-27.500 Y13.930 Z-5.000 I-0.059 J-3.511 F50.000
G1 X-27.500 Y-13.930 Z-5.000 F50.000
G3 X-23.930 Y-17.500 Z-5.000 I3.511 J-0.059 F50.000
G0 Z10.000
G0 X11.250 Y-1.250 Z10.000
G0 X11.250 Y-1.250 Z8.000
G1 X11.250 Y-1.250 Z-10.000 F50.000
G1 X11.250 Y1.250 Z-10.000 F50.000
G1 X-11.250 Y1.250 Z-10.000 F50.000
G1 X-11.250 Y-1.250 Z-10.000 F50.000
G1 X11.250 Y-1.250 Z-10.000 F50.000
G0 Z10.000
G0 X12.500 Y-2.500 Z10.000
G0 X12.500 Y-2.500 Z8.000
G1 X12.500 Y-2.500 Z-10.000 F50.000
G1 X12.500 Y2.500 Z-10.000 F50.000
G1 X-12.500 Y2.500 Z-10.000 F50.000
G1 X-12.500 Y-2.500 Z-10.000 F50.000
G1 X12.500 Y-2.500 Z-10.000 F50.000
G0 Z10.000
G0 X17.500 Y-7.500 Z10.000
G0 X17.500 Y-7.500 Z8.000
G1 X17.500 Y-7.500 Z-10.000 F50.000
G1 X17.500 Y7.500 Z-10.000 F50.000
G1 X-17.500 Y7.500 Z-10.000 F50.000
G1 X-17.500 Y-7.500 Z-10.000 F50.000
G1 X17.500 Y-7.500 Z-10.000 F50.000
G0 Z10.000
G0 X22.500 Y-12.500 Z10.000
G0 X22.500 Y-12.500 Z8.000
G1 X22.500 Y-12.500 Z-10.000 F50.000
G1 X22.500 Y12.500 Z-10.000 F50.000
G1 X-22.500 Y12.500 Z-10.000 F50.000
G1 X-22.500 Y-12.500 Z-10.000 F50.000
G1 X22.500 Y-12.500 Z-10.000 F50.000
G0 Z10.000
G0 X-23.930 Y-17.500 Z10.000
G0 X-23.930 Y-17.500 Z8.000
G1 X-23.930 Y-17.500 Z-10.000 F50.000
G1 X23.930 Y-17.500 Z-10.000 F50.000
G3 X27.500 Y-13.930 Z-10.000 I0.059 J3.511 F50.000
G1 X27.500 Y13.930 Z-10.000 F50.000
G3 X23.930 Y17.500 Z-10.000 I-3.511 J0.059 F50.000
G1 X-23.930 Y17.500 Z-10.000 F50.000
G3 X-27.500 Y13.930 Z-10.000 I-0.059 J-3.511 F50.000
G1 X-27.500 Y-13.930 Z-10.000 F50.000
G3 X-23.930 Y-17.500 Z-10.000 I3.511 J-0.059 F50.000
G0 Z10.000
G0 X11.250 Y-1.250 Z10.000
G0 X11.250 Y-1.250 Z8.000
G1 X11.250 Y-1.250 Z-15.000 F50.000
G1 X11.250 Y1.250 Z-15.000 F50.000
G1 X-11.250 Y1.250 Z-15.000 F50.000
G1 X-11.250 Y-1.250 Z-15.000 F50.000
G1 X11.250 Y-1.250 Z-15.000 F50.000
G0 Z10.000
G0 X12.500 Y-2.500 Z10.000
G0 X12.500 Y-2.500 Z8.000
G1 X12.500 Y-2.500 Z-15.000 F50.000
G1 X12.500 Y2.500 Z-15.000 F50.000
G1 X-12.500 Y2.500 Z-15.000 F50.000
G1 X-12.500 Y-2.500 Z-15.000 F50.000
G1 X12.500 Y-2.500 Z-15.000 F50.000
G0 Z10.000
G0 X17.500 Y-7.500 Z10.000
G0 X17.500 Y-7.500 Z8.000
G1 X17.500 Y-7.500 Z-15.000 F50.000
G1 X17.500 Y7.500 Z-15.000 F50.000
G1 X-17.500 Y7.500 Z-15.000 F50.000
G1 X-17.500 Y-7.500 Z-15.000 F50.000
G1 X17.500 Y-7.500 Z-15.000 F50.000
G0 Z10.000
G0 X22.500 Y-12.500 Z10.000
G0 X22.500 Y-12.500 Z8.000
G1 X22.500 Y-12.500 Z-15.000 F50.000
G1 X22.500 Y12.500 Z-15.000 F50.000
G1 X-22.500 Y12.500 Z-15.000 F50.000
G1 X-22.500 Y-12.500 Z-15.000 F50.000
G1 X22.500 Y-12.500 Z-15.000 F50.000
G0 Z10.000
G0 X-23.930 Y-17.500 Z10.000
G0 X-23.930 Y-17.500 Z8.000
G1 X-23.930 Y-17.500 Z-15.000 F50.000
G1 X23.930 Y-17.500 Z-15.000 F50.000
G3 X27.500 Y-13.930 Z-15.000 I0.059 J3.511 F50.000
G1 X27.500 Y13.930 Z-15.000 F50.000
G3 X23.930 Y17.500 Z-15.000 I-3.511 J0.059 F50.000
G1 X-23.930 Y17.500 Z-15.000 F50.000
G3 X-27.500 Y13.930 Z-15.000 I-0.059 J-3.511 F50.000
G1 X-27.500 Y-13.930 Z-15.000 F50.000
G3 X-23.930 Y-17.500 Z-15.000 I3.511 J-0.059 F50.000
G0 Z10.000
G0 X11.250 Y-1.250 Z10.000
G0 X11.250 Y-1.250 Z8.000
G1 X11.250 Y-1.250 Z-20.000 F50.000
G1 X11.250 Y1.250 Z-20.000 F50.000
G1 X-11.250 Y1.250 Z-20.000 F50.000
G1 X-11.250 Y-1.250 Z-20.000 F50.000
G1 X11.250 Y-1.250 Z-20.000 F50.000
G0 Z10.000
G0 X12.500 Y-2.500 Z10.000
G0 X12.500 Y-2.500 Z8.000
G1 X12.500 Y-2.500 Z-20.000 F50.000
G1 X12.500 Y2.500 Z-20.000 F50.000
G1 X-12.500 Y2.500 Z-20.000 F50.000
G1 X-12.500 Y-2.500 Z-20.000 F50.000
G1 X12.500 Y-2.500 Z-20.000 F50.000
G0 Z10.000
G0 X17.500 Y-7.500 Z10.000
G0 X17.500 Y-7.500 Z8.000
G1 X17.500 Y-7.500 Z-20.000 F50.000
G1 X17.500 Y7.500 Z-20.000 F50.000
G1 X-17.500 Y7.500 Z-20.000 F50.000
G1 X-17.500 Y-7.500 Z-20.000 F50.000
G1 X17.500 Y-7.500 Z-20.000 F50.000
G0 Z10.000
G0 X22.500 Y-12.500 Z10.000
G0 X22.500 Y-12.500 Z8.000
G1 X22.500 Y-12.500 Z-20.000 F50.000
G1 X22.500 Y12.500 Z-20.000 F50.000
G1 X-22.500 Y12.500 Z-20.000 F50.000
G1 X-22.500 Y-12.500 Z-20.000 F50.000
G1 X22.500 Y-12.500 Z-20.000 F50.000
G0 Z10.000
G0 X-23.930 Y-17.500 Z10.000
G0 X-23.930 Y-17.500 Z8.000
G1 X-23.930 Y-17.500 Z-20.000 F50.000
G1 X23.930 Y-17.500 Z-20.000 F50.000
G3 X27.500 Y-13.930 Z-20.000 I0.059 J3.511 F50.000
G1 X27.500 Y13.930 Z-20.000 F50.000
G3 X23.930 Y17.500 Z-20.000 I-3.511 J0.059 F50.000
G1 X-23.930 Y17.500 Z-20.000 F50.000
G3 X-27.500 Y13.930 Z-20.000 I-0.059 J-3.511 F50.000
G1 X-27.500 Y-13.930 Z-20.000 F50.000
G3 X-23.930 Y-17.500 Z-20.000 I3.511 J-0.059 F50.000
G0 Z10.000
G0 Z10.000
(finish operation: Pocket_Shape)
(begin postamble)
M05 M09
G17 G90 G80 G40
M30
