(Exported by FreeCAD)
(Post Processor: script_module)
(Output Time:2025-06-12 14:54:44.395630)
(begin preamble)
%
G17 G21 G40 G49 G80 G90
M08
G21
(begin operation: Fixture)
(machine: not set, mm/min)
G54
(finish operation: Fixture)
(begin operation: TC: Default Tool)
(machine: not set, mm/min)
(TC: Default Tool)
M05
M09M6 T1
M3 S5000
(finish operation: TC: Default Tool)
(begin operation: Pocket_Shape)
(machine: not set, mm/min)
(Pocket_Shape)
G0 Z10.000
G0
G0 X693.182 Y481.818
G0 X693.182 Y481.818 Z8.000
G1 X693.182 Y481.818 Z0.000 F50.000
G1 X693.182 Y518.182 Z0.000 F50.000
G1 X306.818 Y518.182 Z0.000 F50.000
G1 X306.818 Y481.818 Z0.000 F50.000
G1 X693.182 Y481.818 Z0.000 F50.000
G0 Z10.000
G0 X704.545 Y468.182 Z10.000
G0 X704.545 Y468.182 Z8.000
G1 X704.545 Y468.182 Z0.000 F50.000
G1 X704.545 Y531.818 Z0.000 F50.000
G1 X295.455 Y531.818 Z0.000 F50.000
G1 X295.455 Y468.182 Z0.000 F50.000
G1 X704.545 Y468.182 Z0.000 F50.000
G0 Z10.000
G0 X786.364 Y386.364 Z10.000
G0 X786.364 Y386.364 Z8.000
G1 X786.364 Y386.364 Z0.000 F50.000
G1 X786.364 Y613.636 Z0.000 F50.000
G1 X213.636 Y613.636 Z0.000 F50.000
G1 X213.636 Y386.364 Z0.000 F50.000
G1 X786.364 Y386.364 Z0.000 F50.000
G0 Z10.000
G0 X868.182 Y304.545 Z10.000
G0 X868.182 Y304.545 Z8.000
G1 X868.182 Y304.545 Z0.000 F50.000
G1 X868.182 Y695.455 Z0.000 F50.000
G1 X131.818 Y695.455 Z0.000 F50.000
G1 X131.818 Y304.545 Z0.000 F50.000
G1 X868.182 Y304.545 Z0.000 F50.000
G0 Z10.000
G0 X108.409 Y386.364 Z10.000
G0 X108.409 Y386.364 Z8.000
G1 X108.409 Y386.364 Z0.000 F50.000
G1 X891.591 Y386.364 Z0.000 F50.000
G3 X950.000 Y444.773 Z0.000 I0.966 J57.409 F50.000
G1 X950.000 Y555.227 Z0.000 F50.000
G3 X891.591 Y613.636 Z0.000 I-57.409 J0.966 F50.000
G1 X108.409 Y613.636 Z0.000 F50.000
G3 X50.000 Y555.227 Z0.000 I-0.966 J-57.409 F50.000
G1 X50.000 Y444.773 Z0.000 F50.000
G3 X108.409 Y386.364 Z0.000 I57.409 J-0.966 F50.000
G0 Z10.000
G0 X693.182 Y481.818 Z10.000
G0 X693.182 Y481.818 Z8.000
G1 X693.182 Y481.818 Z-5.000 F50.000
G1 X693.182 Y518.182 Z-5.000 F50.000
G1 X306.818 Y518.182 Z-5.000 F50.000
G1 X306.818 Y481.818 Z-5.000 F50.000
G1 X693.182 Y481.818 Z-5.000 F50.000
G0 Z10.000
G0 X704.545 Y468.182 Z10.000
G0 X704.545 Y468.182 Z8.000
G1 X704.545 Y468.182 Z-5.000 F50.000
G1 X704.545 Y531.818 Z-5.000 F50.000
G1 X295.455 Y531.818 Z-5.000 F50.000
G1 X295.455 Y468.182 Z-5.000 F50.000
G1 X704.545 Y468.182 Z-5.000 F50.000
G0 Z10.000
G0 X786.364 Y386.364 Z10.000
G0 X786.364 Y386.364 Z8.000
G1 X786.364 Y386.364 Z-5.000 F50.000
G1 X786.364 Y613.636 Z-5.000 F50.000
G1 X213.636 Y613.636 Z-5.000 F50.000
G1 X213.636 Y386.364 Z-5.000 F50.000
G1 X786.364 Y386.364 Z-5.000 F50.000
G0 Z10.000
G0 X868.182 Y304.545 Z10.000
G0 X868.182 Y304.545 Z8.000
G1 X868.182 Y304.545 Z-5.000 F50.000
G1 X868.182 Y695.455 Z-5.000 F50.000
G1 X131.818 Y695.455 Z-5.000 F50.000
G1 X131.818 Y304.545 Z-5.000 F50.000
G1 X868.182 Y304.545 Z-5.000 F50.000
G0 Z10.000
G0 X108.409 Y386.364 Z10.000
G0 X108.409 Y386.364 Z8.000
G1 X108.409 Y386.364 Z-5.000 F50.000
G1 X891.591 Y386.364 Z-5.000 F50.000
G3 X950.000 Y444.773 Z-5.000 I0.966 J57.409 F50.000
G1 X950.000 Y555.227 Z-5.000 F50.000
G3 X891.591 Y613.636 Z-5.000 I-57.409 J0.966 F50.000
G1 X108.409 Y613.636 Z-5.000 F50.000
G3 X50.000 Y555.227 Z-5.000 I-0.966 J-57.409 F50.000
G1 X50.000 Y444.773 Z-5.000 F50.000
G3 X108.409 Y386.364 Z-5.000 I57.409 J-0.966 F50.000
G0 Z10.000
G0 X693.182 Y481.818 Z10.000
G0 X693.182 Y481.818 Z8.000
G1 X693.182 Y481.818 Z-10.000 F50.000
G1 X693.182 Y518.182 Z-10.000 F50.000
G1 X306.818 Y518.182 Z-10.000 F50.000
G1 X306.818 Y481.818 Z-10.000 F50.000
G1 X693.182 Y481.818 Z-10.000 F50.000
G0 Z10.000
G0 X704.545 Y468.182 Z10.000
G0 X704.545 Y468.182 Z8.000
G1 X704.545 Y468.182 Z-10.000 F50.000
G1 X704.545 Y531.818 Z-10.000 F50.000
G1 X295.455 Y531.818 Z-10.000 F50.000
G1 X295.455 Y468.182 Z-10.000 F50.000
G1 X704.545 Y468.182 Z-10.000 F50.000
G0 Z10.000
G0 X786.364 Y386.364 Z10.000
G0 X786.364 Y386.364 Z8.000
G1 X786.364 Y386.364 Z-10.000 F50.000
G1 X786.364 Y613.636 Z-10.000 F50.000
G1 X213.636 Y613.636 Z-10.000 F50.000
G1 X213.636 Y386.364 Z-10.000 F50.000
G1 X786.364 Y386.364 Z-10.000 F50.000
G0 Z10.000
G0 X868.182 Y304.545 Z10.000
G0 X868.182 Y304.545 Z8.000
G1 X868.182 Y304.545 Z-10.000 F50.000
G1 X868.182 Y695.455 Z-10.000 F50.000
G1 X131.818 Y695.455 Z-10.000 F50.000
G1 X131.818 Y304.545 Z-10.000 F50.000
G1 X868.182 Y304.545 Z-10.000 F50.000
G0 Z10.000
G0 X108.409 Y386.364 Z10.000
G0 X108.409 Y386.364 Z8.000
G1 X108.409 Y386.364 Z-10.000 F50.000
G1 X891.591 Y386.364 Z-10.000 F50.000
G3 X950.000 Y444.773 Z-10.000 I0.966 J57.409 F50.000
G1 X950.000 Y555.227 Z-10.000 F50.000
G3 X891.591 Y613.636 Z-10.000 I-57.409 J0.966 F50.000
G1 X108.409 Y613.636 Z-10.000 F50.000
G3 X50.000 Y555.227 Z-10.000 I-0.966 J-57.409 F50.000
G1 X50.000 Y444.773 Z-10.000 F50.000
G3 X108.409 Y386.364 Z-10.000 I57.409 J-0.966 F50.000
G0 Z10.000
G0 X693.182 Y481.818 Z10.000
G0 X693.182 Y481.818 Z8.000
G1 X693.182 Y481.818 Z-15.000 F50.000
G1 X693.182 Y518.182 Z-15.000 F50.000
G1 X306.818 Y518.182 Z-15.000 F50.000
G1 X306.818 Y481.818 Z-15.000 F50.000
G1 X693.182 Y481.818 Z-15.000 F50.000
G0 Z10.000
G0 X704.545 Y468.182 Z10.000
G0 X704.545 Y468.182 Z8.000
G1 X704.545 Y468.182 Z-15.000 F50.000
G1 X704.545 Y531.818 Z-15.000 F50.000
G1 X295.455 Y531.818 Z-15.000 F50.000
G1 X295.455 Y468.182 Z-15.000 F50.000
G1 X704.545 Y468.182 Z-15.000 F50.000
G0 Z10.000
G0 X786.364 Y386.364 Z10.000
G0 X786.364 Y386.364 Z8.000
G1 X786.364 Y386.364 Z-15.000 F50.000
G1 X786.364 Y613.636 Z-15.000 F50.000
G1 X213.636 Y613.636 Z-15.000 F50.000
G1 X213.636 Y386.364 Z-15.000 F50.000
G1 X786.364 Y386.364 Z-15.000 F50.000
G0 Z10.000
G0 X868.182 Y304.545 Z10.000
G0 X868.182 Y304.545 Z8.000
G1 X868.182 Y304.545 Z-15.000 F50.000
G1 X868.182 Y695.455 Z-15.000 F50.000
G1 X131.818 Y695.455 Z-15.000 F50.000
G1 X131.818 Y304.545 Z-15.000 F50.000
G1 X868.182 Y304.545 Z-15.000 F50.000
G0 Z10.000
G0 X108.409 Y386.364 Z10.000
G0 X108.409 Y386.364 Z8.000
G1 X108.409 Y386.364 Z-15.000 F50.000
G1 X891.591 Y386.364 Z-15.000 F50.000
G3 X950.000 Y444.773 Z-15.000 I0.966 J57.409 F50.000
G1 X950.000 Y555.227 Z-15.000 F50.000
G3 X891.591 Y613.636 Z-15.000 I-57.409 J0.966 F50.000
G1 X108.409 Y613.636 Z-15.000 F50.000
G3 X50.000 Y555.227 Z-15.000 I-0.966 J-57.409 F50.000
G1 X50.000 Y444.773 Z-15.000 F50.000
G3 X108.409 Y386.364 Z-15.000 I57.409 J-0.966 F50.000
G0 Z10.000
G0 X693.182 Y481.818 Z10.000
G0 X693.182 Y481.818 Z8.000
G1 X693.182 Y481.818 Z-20.000 F50.000
G1 X693.182 Y518.182 Z-20.000 F50.000
G1 X306.818 Y518.182 Z-20.000 F50.000
G1 X306.818 Y481.818 Z-20.000 F50.000
G1 X693.182 Y481.818 Z-20.000 F50.000
G0 Z10.000
G0 X704.545 Y468.182 Z10.000
G0 X704.545 Y468.182 Z8.000
G1 X704.545 Y468.182 Z-20.000 F50.000
G1 X704.545 Y531.818 Z-20.000 F50.000
G1 X295.455 Y531.818 Z-20.000 F50.000
G1 X295.455 Y468.182 Z-20.000 F50.000
G1 X704.545 Y468.182 Z-20.000 F50.000
G0 Z10.000
G0 X786.364 Y386.364 Z10.000
G0 X786.364 Y386.364 Z8.000
G1 X786.364 Y386.364 Z-20.000 F50.000
G1 X786.364 Y613.636 Z-20.000 F50.000
G1 X213.636 Y613.636 Z-20.000 F50.000
G1 X213.636 Y386.364 Z-20.000 F50.000
G1 X786.364 Y386.364 Z-20.000 F50.000
G0 Z10.000
G0 X868.182 Y304.545 Z10.000
G0 X868.182 Y304.545 Z8.000
G1 X868.182 Y304.545 Z-20.000 F50.000
G1 X868.182 Y695.455 Z-20.000 F50.000
G1 X131.818 Y695.455 Z-20.000 F50.000
G1 X131.818 Y304.545 Z-20.000 F50.000
G1 X868.182 Y304.545 Z-20.000 F50.000
G0 Z10.000
G0 X108.409 Y386.364 Z10.000
G0 X108.409 Y386.364 Z8.000
G1 X108.409 Y386.364 Z-20.000 F50.000
G1 X891.591 Y386.364 Z-20.000 F50.000
G3 X950.000 Y444.773 Z-20.000 I0.966 J57.409 F50.000
G1 X950.000 Y555.227 Z-20.000 F50.000
G3 X891.591 Y613.636 Z-20.000 I-57.409 J0.966 F50.000
G1 X108.409 Y613.636 Z-20.000 F50.000
G3 X50.000 Y555.227 Z-20.000 I-0.966 J-57.409 F50.000
G1 X50.000 Y444.773 Z-20.000 F50.000
G3 X108.409 Y386.364 Z-20.000 I57.409 J-0.966 F50.000
G0 Z10.000
G0 Z10.000
(finish operation: Pocket_Shape)
(begin postamble)
M05 M09
G17 G90 G80 G40
M30